svg/aws-ec2-instance.svg

<?xml version="1.0" encoding="UTF-8"?>
<svg xmlns="http://www.w3.org/2000/svg" xmlns:xlink="http://www.w3.org/1999/xlink" width="32" height="32" viewBox="0 0 32 32">
<path fill-rule="nonzero" fill="rgb(92.941176%, 44.313725%, 0%)" fill-opacity="1" d="M 0.203125 0.203125 L 31.796875 0.203125 L 31.796875 31.796875 L 0.203125 31.796875 Z M 0.203125 0.203125 "/>
<path fill-rule="nonzero" fill="rgb(100%, 100%, 100%)" fill-opacity="1" d="M 10.128906 21.871094 L 21.414062 21.871094 L 21.414062 10.585938 L 10.128906 10.585938 Z M 22.320312 10.585938 L 24.125 10.585938 L 24.125 11.488281 L 22.320312 11.488281 L 22.320312 13.289062 L 24.125 13.289062 L 24.125 14.195312 L 22.320312 14.195312 L 22.320312 15.550781 L 24.125 15.550781 L 24.125 16.449219 L 22.320312 16.449219 L 22.320312 18.257812 L 24.125 18.257812 L 24.125 19.160156 L 22.320312 19.160156 L 22.320312 20.964844 L 24.125 20.964844 L 24.125 21.871094 L 22.320312 21.871094 L 22.320312 21.929688 C 22.320312 22.390625 21.941406 22.769531 21.476562 22.769531 L 21.414062 22.769531 L 21.414062 24.574219 L 20.511719 24.574219 L 20.511719 22.769531 L 18.710938 22.769531 L 18.710938 24.574219 L 17.804688 24.574219 L 17.804688 22.769531 L 16.449219 22.769531 L 16.449219 24.574219 L 15.550781 24.574219 L 15.550781 22.769531 L 13.742188 22.769531 L 13.742188 24.574219 L 12.839844 24.574219 L 12.839844 22.769531 L 11.035156 22.769531 L 11.035156 24.574219 L 10.128906 24.574219 L 10.128906 22.769531 L 10.070312 22.769531 C 9.847656 22.769531 9.632812 22.683594 9.476562 22.523438 C 9.316406 22.367188 9.230469 22.152344 9.230469 21.929688 L 9.230469 21.871094 L 7.875 21.871094 L 7.875 20.964844 L 9.230469 20.964844 L 9.230469 19.160156 L 7.875 19.160156 L 7.875 18.257812 L 9.230469 18.257812 L 9.230469 16.449219 L 7.875 16.449219 L 7.875 15.550781 L 9.230469 15.550781 L 9.230469 14.195312 L 7.875 14.195312 L 7.875 13.289062 L 9.230469 13.289062 L 9.230469 11.488281 L 7.875 11.488281 L 7.875 10.585938 L 9.230469 10.585938 L 9.230469 10.523438 C 9.230469 10.058594 9.609375 9.679688 10.070312 9.679688 L 10.128906 9.679688 L 10.128906 7.875 L 11.035156 7.875 L 11.035156 9.679688 L 12.839844 9.679688 L 12.839844 7.875 L 13.742188 7.875 L 13.742188 9.679688 L 15.550781 9.679688 L 15.550781 7.875 L 16.449219 7.875 L 16.449219 9.679688 L 17.804688 9.679688 L 17.804688 7.875 L 18.710938 7.875 L 18.710938 9.679688 L 20.511719 9.679688 L 20.511719 7.875 L 21.414062 7.875 L 21.414062 9.679688 L 21.476562 9.679688 C 21.941406 9.679688 22.320312 10.058594 22.320312 10.523438 Z M 16.449219 27.679688 C 16.449219 27.710938 16.425781 27.734375 16.398438 27.734375 L 4.320312 27.734375 C 4.304688 27.734375 4.292969 27.726562 4.28125 27.71875 C 4.269531 27.707031 4.265625 27.695312 4.265625 27.679688 L 4.265625 15.601562 C 4.265625 15.574219 4.289062 15.550781 4.320312 15.550781 L 6.972656 15.550781 L 6.972656 14.648438 L 4.320312 14.648438 C 4.066406 14.648438 3.824219 14.75 3.644531 14.925781 C 3.464844 15.105469 3.363281 15.347656 3.363281 15.601562 L 3.363281 27.679688 C 3.363281 28.207031 3.792969 28.636719 4.320312 28.636719 L 16.398438 28.636719 C 16.921875 28.636719 17.351562 28.207031 17.351562 27.679688 L 17.351562 25.476562 L 16.449219 25.476562 Z M 28.636719 4.320312 L 28.636719 16.398438 C 28.636719 16.921875 28.207031 17.351562 27.679688 17.351562 L 25.027344 17.351562 L 25.027344 16.449219 L 27.679688 16.449219 C 27.710938 16.449219 27.734375 16.425781 27.734375 16.398438 L 27.734375 4.320312 C 27.730469 4.304688 27.726562 4.292969 27.71875 4.28125 C 27.707031 4.273438 27.691406 4.269531 27.679688 4.265625 L 15.601562 4.265625 C 15.589844 4.265625 15.578125 4.273438 15.566406 4.28125 C 15.554688 4.292969 15.550781 4.304688 15.550781 4.320312 L 15.550781 6.972656 L 14.648438 6.972656 L 14.648438 4.320312 C 14.648438 3.792969 15.078125 3.363281 15.601562 3.363281 L 27.679688 3.363281 C 28.207031 3.363281 28.636719 3.792969 28.636719 4.320312 "/>
</svg>

<svg role="img" viewBox="0 0 32 32" height="32" width="32" xmlns="http://www.w3.org/2000/svg"><path d="M.203.203h31.594v31.594H.203Zm0 0" fill="rgb(92.941176%, 44.313725%, 0%)"/><path d="M10.129 21.871h11.285V10.586H10.13ZM22.32 10.586h1.805v.902H22.32v1.801h1.805v.906H22.32v1.356h1.805v.898H22.32v1.809h1.805v.902H22.32v1.805h1.805v.906H22.32v.059c0 .46-.379.84-.843.84h-.063v1.804h-.902V22.77H18.71v1.804h-.906V22.77h-1.356v1.804h-.898V22.77h-1.809v1.804h-.902V22.77h-1.805v1.804h-.906V22.77h-.059a.839.839 0 0 1-.84-.84v-.059H7.875v-.906H9.23V19.16H7.875v-.902H9.23v-1.809H7.875v-.898H9.23v-1.356H7.875v-.906H9.23v-1.8H7.875v-.903H9.23v-.063c0-.464.38-.843.84-.843h.059V7.875h.906V9.68h1.805V7.875h.902V9.68h1.809V7.875h.898V9.68h1.356V7.875h.906V9.68h1.8V7.875h.903V9.68h.063c.464 0 .843.379.843.843ZM16.45 27.68c0 .03-.024.054-.052.054H4.32a.07.07 0 0 1-.039-.015.05.05 0 0 1-.015-.04V15.603c0-.028.023-.051.054-.051h2.653v-.903H4.32a.955.955 0 0 0-.957.954V27.68c0 .527.43.957.957.957h12.078c.524 0 .954-.43.954-.957v-2.203h-.903ZM28.636 4.32v12.078c0 .524-.43.954-.957.954h-2.653v-.903h2.653c.03 0 .054-.023.054-.05V4.32a.117.117 0 0 0-.015-.039c-.012-.008-.028-.011-.04-.015H15.603c-.012 0-.024.007-.036.015a.05.05 0 0 0-.015.04v2.652h-.903V4.32c0-.527.43-.957.954-.957H27.68c.527 0 .957.43.957.957" fill="rgb(100%, 100%, 100%)"/></svg>
